X: 1
T: The Rose Garden
R: reel
M: 4/4
L: 1/8
K: Edor
EFGA BE~E2|GBAG FDDF|GFEF GABc|dfec dBAF|
EFGA BE~E2|GBAG FDDF|GFEF GABc|1 dBAF GEED:|2 dBAF GE~E2||
|:eB~B2 egfe|fddc defg|afgf efga|bgaf geed|
efga bgaf|(3efg fe d3e|faef dfec|1 dBAF GE~E2:|2 dBAF GEED||

